svgs/light/cloud-hail-mixed.svg

<svg xmlns="http://www.w3.org/2000/svg" viewBox="0 0 512 512"><!--! Font Awesome Pro 6.0.0-alpha3 by @fontawesome - https://fontawesome.com License - https://fontawesome.com/license (Commercial License) --><path d="M183.9 370.1c-7.625-4.375-17.38-1.875-21.75 6l-64 112c-4.375 7.625-1.75 17.5 6 21.75C106.6 511.3 109.3 512 112 512c5.5 0 10.88-2.875 13.88-8.125l64-112C194.3 384.3 191.6 374.5 183.9 370.1zM279.3 369.8c-8-4-17.5-.875-21.5 7.125l-16 32c-4 7.875-.875 17.5 7.125 21.5c2.375 1.125 4.875 1.75 7.25 1.75c5.75 0 11.5-3.25 14.25-8.875l16-32C290.3 383.3 287.1 373.6 279.3 369.8zM216 464C202.8 464 192 474.8 192 488S202.8 512 216 512s24-10.75 24-24S229.3 464 216 464zM87.25 369.8c-8-4-17.5-.875-21.5 7.125l-16 32c-4 7.875-.875 17.5 7.125 21.5c2.375 1.125 4.875 1.75 7.25 1.75c5.75 0 11.5-3.25 14.25-8.875l16-32C98.25 383.3 95.13 373.6 87.25 369.8zM24 464C10.75 464 0 474.8 0 488S10.75 512 24 512s24-10.75 24-24S37.25 464 24 464zM471.3 369.8c-8-4-17.5-.875-21.5 7.125l-16 32c-4 7.875-.875 17.5 7.125 21.5c2.375 1.125 4.875 1.75 7.25 1.75c5.75 0 11.5-3.25 14.25-8.875l16-32C482.3 383.3 479.1 373.6 471.3 369.8zM375.9 370.1c-7.625-4.375-17.38-1.875-21.75 6l-64 112c-4.375 7.625-1.75 17.5 6 21.75C298.6 511.3 301.3 512 304 512c5.5 0 10.88-2.875 13.88-8.125l64-112C386.3 384.3 383.6 374.5 375.9 370.1zM408 464c-13.25 0-24 10.75-24 24S394.8 512 408 512s24-10.75 24-24S421.3 464 408 464zM414.7 112.2C407.2 66.75 367.6 32 320 32c-18.97 0-37.09 5.469-52.59 15.69C246.7 18.22 212.6 0 176 0C114.3 0 64 50.25 64 112c0 2.719 .0938 5.438 .3125 8.188C25.84 136.1 0 173.7 0 216C0 273.3 46.66 320 104 320h304C465.3 320 512 273.3 512 216C512 160.9 468.9 115.7 414.7 112.2zM408 288h-304C64.31 288 32 255.7 32 216c0-32.59 22.19-61.13 53.97-69.38c8.219-2.156 13.34-10.34 11.66-18.66C96.56 122.8 96 117.5 96 112C96 67.88 131.9 32 176 32c30.97 0 59.41 18.31 72.47 46.63c2.188 4.781 6.594 8.188 11.78 9.062c5.188 1.094 10.47-.75 14.16-4.531C286.6 70.81 302.8 64 320 64c35.28 0 64 28.72 64 64c0 8.844 7.156 16 16 16h8C447.7 144 480 176.3 480 216S447.7 288 408 288z"/></svg>

<svg xmlns="http://www.w3.org/2000/svg" viewBox="0 0 512 512"><!-- Font Awesome Pro 6.0.0-alpha2 by @fontawesome - https://fontawesome.com License - https://fontawesome.com/license (Commercial License) --><path d="M183.875 370.125C176.25 365.75 166.5 368.25 162.125 376.125L98.125 488.125C93.75 495.75 96.375 505.625 104.125 509.875C106.625 511.25 109.25 512 112 512C117.5 512 122.875 509.125 125.875 503.875L189.875 391.875C194.25 384.25 191.625 374.5 183.875 370.125ZM279.25 369.75C271.25 365.75 261.75 368.875 257.75 376.875L241.75 408.875C237.75 416.75 240.875 426.375 248.875 430.375C251.25 431.5 253.75 432.125 256.125 432.125C261.875 432.125 267.625 428.875 270.375 423.25L286.375 391.25C290.25 383.25 287.125 373.625 279.25 369.75ZM216 464C202.75 464 192 474.75 192 488S202.75 512 216 512S240 501.25 240 488S229.25 464 216 464ZM87.25 369.75C79.25 365.75 69.75 368.875 65.75 376.875L49.75 408.875C45.75 416.75 48.875 426.375 56.875 430.375C59.25 431.5 61.75 432.125 64.125 432.125C69.875 432.125 75.625 428.875 78.375 423.25L94.375 391.25C98.25 383.25 95.125 373.625 87.25 369.75ZM24 464C10.75 464 0 474.75 0 488S10.75 512 24 512S48 501.25 48 488S37.25 464 24 464ZM471.25 369.75C463.25 365.75 453.75 368.875 449.75 376.875L433.75 408.875C429.75 416.75 432.875 426.375 440.875 430.375C443.25 431.5 445.75 432.125 448.125 432.125C453.875 432.125 459.625 428.875 462.375 423.25L478.375 391.25C482.25 383.25 479.125 373.625 471.25 369.75ZM375.875 370.125C368.25 365.75 358.5 368.25 354.125 376.125L290.125 488.125C285.75 495.75 288.375 505.625 296.125 509.875C298.625 511.25 301.25 512 304 512C309.5 512 314.875 509.125 317.875 503.875L381.875 391.875C386.25 384.25 383.625 374.5 375.875 370.125ZM408 464C394.75 464 384 474.75 384 488S394.75 512 408 512S432 501.25 432 488S421.25 464 408 464ZM414.688 112.219C407.156 66.75 367.562 32 320 32C301.031 32 282.906 37.469 267.406 47.688C246.688 18.219 212.594 0 176 0C114.25 0 64 50.25 64 112C64 114.719 64.094 117.438 64.312 120.188C25.844 136.062 0 173.656 0 216C0 273.344 46.656 320 104 320H408C465.344 320 512 273.344 512 216C512 160.906 468.938 115.688 414.688 112.219ZM408 288H104C64.312 288 32 255.688 32 216C32 183.406 54.188 154.875 85.969 146.625C94.187 144.469 99.312 136.281 97.625 127.969C96.562 122.781 96 117.469 96 112C96 67.875 131.875 32 176 32C206.969 32 235.406 50.312 248.469 78.625C250.656 83.406 255.062 86.812 260.25 87.687C265.438 88.781 270.719 86.937 274.406 83.156C286.562 70.812 302.75 64 320 64C355.281 64 384 92.719 384 128C384 136.844 391.156 144 400 144H408C447.688 144 480 176.312 480 216S447.688 288 408 288Z"/></svg>
